tenants/donaldduck/icons/child.svg

<svg fill="none" height="24" viewBox="0 0 24 24" width="24" xmlns="http://www.w3.org/2000/svg"><path d="m8.53847 13.1538c-.22822 0-.4513-.0676-.64105-.1944-.18974-.1268-.33764-.307-.42497-.5179-.08733-.2108-.11018-.4428-.06566-.6666.04453-.2238.15442-.4294.31579-.5908.16136-.1613.36696-.2713.59078-.3158s.45582-.0217.66666.0657c.21084.0873.39105.2352.51783.4249.12679.1898.19446.4129.19446.6411 0 .306-.12156.5995-.33795.8159s-.50988.3379-.81589.3379zm6.92303-2.3076c-.2282 0-.4513.0676-.641.1944s-.3377.307-.425.5179c-.0873.2108-.1101.4428-.0657.6666.0446.2238.1545.4294.3158.5908.1614.1613.367.2713.5909.3158.2237.0445.4557.0216.6666-.0657.2108-.0873.3911-.2352.5178-.4249.1268-.1898.1945-.4129.1945-.6411 0-.306-.1216-.5995-.3379-.8159-.2164-.2164-.51-.3379-.816-.3379zm-1.1797 4.349c-.6852.4252-1.4755.6505-2.2818.6505s-1.5966-.2253-2.28169-.6505c-.17268-.1089-.38151-.1447-.58059-.0997-.19908.0451-.37209.1674-.48098.34-.10889.1727-.14475.3816-.09966.5807.04507.199.1674.372.34004.481.93088.5803 2.00588.8879 3.10288.8879s2.172-.3076 3.1029-.8879c.1726-.109.2949-.282.34-.481.0451-.1991.0093-.408-.0996-.5807-.1089-.1726-.2819-.2949-.481-.34-.1991-.045-.4079-.0092-.5805.0997zm7.7182-3.1952c0 1.9778-.5865 3.9112-1.6853 5.5557s-2.6606 2.9262-4.4879 3.6831c-1.8272.7569-3.8379.9549-5.7777.569-1.93981-.3858-3.72164-1.3382-5.12016-2.7367-1.39853-1.3986-2.35094-3.1804-2.73679-5.1202s-.18782-3.9504.56906-5.77773c.75687-1.82726 2.0386-3.38905 3.68309-4.48786 1.64449-1.09882 3.5779-1.68531 5.5557-1.68531 2.6513.0028 5.1932 1.05727 7.068 2.93202 1.8748 1.87476 2.9292 4.41667 2.932 7.06798zm-1.5385 0c-.0027-2.17823-.8442-4.27173-2.3498-5.84579-1.5057-1.57406-3.5598-2.50772-5.7357-2.60709-1.1145 1.56634-1.1452 3.05673-1.1452 3.06826 0 .20402.081.39967.2253.54394.1442.14425.3399.2253.5439.2253s.3997-.08105.5439-.2253c.1443-.14427.2253-.33992.2253-.54394 0-.20401.0811-.39966.2253-.54393.1443-.14425.34-.2253.544-.2253s.3997.08105.5439.2253c.1442.14427.2253.33992.2253.54393 0 .61204-.2432 1.19901-.6759 1.63179-.4328.43278-1.0197.67591-1.6318.67591-.612 0-1.199-.24313-1.6318-.67591-.43274-.43278-.67589-1.01975-.67589-1.63179 0-.07019.01254-1.375.81349-2.94519-1.5843.28424-3.05464 1.01444-4.23851 2.10493s-2.03215 2.49601-2.44531 4.05165c-.41316 1.55563-.37405 3.19683.11274 4.73103s1.40106 2.8977 2.63553 3.9306c1.23447 1.0328 2.73792 1.6922 4.33395 1.9006 1.596.2085 3.2183-.0426 4.6767-.7238 1.4583-.6811 2.6921-1.7641 3.5566-3.1218s1.3238-2.9339 1.324-4.5434z" fill="#000"/></svg>

<svg width="24" height="24" viewBox="0 0 24 24" fill="none" xmlns="http://www.w3.org/2000/svg">
<path d="M8.53847 13.1538C8.31025 13.1538 8.08717 13.0862 7.89742 12.9594C7.70768 12.8326 7.55978 12.6524 7.47245 12.4415C7.38512 12.2307 7.36227 11.9987 7.40679 11.7749C7.45132 11.5511 7.56121 11.3455 7.72258 11.1841C7.88394 11.0228 8.08954 10.9128 8.31336 10.8683C8.53718 10.8238 8.76918 10.8466 8.98002 10.934C9.19086 11.0213 9.37107 11.1692 9.49785 11.3589C9.62464 11.5487 9.69231 11.7718 9.69231 12C9.69231 12.306 9.57075 12.5995 9.35436 12.8159C9.13797 13.0323 8.84448 13.1538 8.53847 13.1538ZM15.4615 10.8462C15.2333 10.8462 15.0102 10.9138 14.8205 11.0406C14.6308 11.1674 14.4828 11.3476 14.3955 11.5585C14.3082 11.7693 14.2854 12.0013 14.3298 12.2251C14.3744 12.4489 14.4843 12.6545 14.6456 12.8159C14.807 12.9772 15.0126 13.0872 15.2365 13.1317C15.4602 13.1762 15.6922 13.1533 15.9031 13.066C16.1139 12.9787 16.2942 12.8308 16.4209 12.6411C16.5477 12.4513 16.6154 12.2282 16.6154 12C16.6154 11.694 16.4938 11.4005 16.2775 11.1841C16.0611 10.9677 15.7675 10.8462 15.4615 10.8462ZM14.2818 15.1952C13.5966 15.6204 12.8063 15.8457 12 15.8457C11.1937 15.8457 10.4034 15.6204 9.71831 15.1952C9.54563 15.0863 9.3368 15.0505 9.13772 15.0955C8.93864 15.1406 8.76563 15.2629 8.65674 15.4355C8.54785 15.6082 8.51199 15.8171 8.55708 16.0162C8.60215 16.2152 8.72448 16.3882 8.89712 16.4972C9.828 17.0775 10.903 17.3851 12 17.3851C13.097 17.3851 14.172 17.0775 15.1029 16.4972C15.2755 16.3882 15.3978 16.2152 15.4429 16.0162C15.488 15.8171 15.4522 15.6082 15.3433 15.4355C15.2344 15.2629 15.0614 15.1406 14.8623 15.0955C14.6632 15.0505 14.4544 15.0863 14.2818 15.1952ZM22 12C22 13.9778 21.4135 15.9112 20.3147 17.5557C19.2159 19.2002 17.6541 20.4819 15.8268 21.2388C13.9996 21.9957 11.9889 22.1937 10.0491 21.8078C8.10929 21.422 6.32746 20.4696 4.92894 19.0711C3.53041 17.6725 2.578 15.8907 2.19215 13.9509C1.8063 12.0111 2.00433 10.0005 2.76121 8.17317C3.51808 6.34591 4.79981 4.78412 6.4443 3.68531C8.08879 2.58649 10.0222 2 12 2C14.6513 2.0028 17.1932 3.05727 19.068 4.93202C20.9428 6.80678 21.9972 9.34869 22 12ZM20.4615 12C20.4588 9.82177 19.6173 7.72827 18.1117 6.15421C16.606 4.58015 14.5519 3.64649 12.376 3.54712C11.2615 5.11346 11.2308 6.60385 11.2308 6.61538C11.2308 6.8194 11.3118 7.01505 11.4561 7.15932C11.6003 7.30357 11.796 7.38462 12 7.38462C12.204 7.38462 12.3997 7.30357 12.5439 7.15932C12.6882 7.01505 12.7692 6.8194 12.7692 6.61538C12.7692 6.41137 12.8503 6.21572 12.9945 6.07145C13.1388 5.9272 13.3345 5.84615 13.5385 5.84615C13.7425 5.84615 13.9382 5.9272 14.0824 6.07145C14.2266 6.21572 14.3077 6.41137 14.3077 6.61538C14.3077 7.22742 14.0645 7.81439 13.6318 8.24717C13.199 8.67995 12.6121 8.92308 12 8.92308C11.388 8.92308 10.801 8.67995 10.3682 8.24717C9.93546 7.81439 9.69231 7.22742 9.69231 6.61538C9.69231 6.54519 9.70485 5.24038 10.5058 3.67019C8.9215 3.95443 7.45116 4.68463 6.26729 5.77512C5.08342 6.86561 4.23514 8.27113 3.82198 9.82677C3.40882 11.3824 3.44793 13.0236 3.93472 14.5578C4.42151 16.092 5.33578 17.4555 6.57025 18.4884C7.80472 19.5212 9.30817 20.1806 10.9042 20.389C12.5002 20.5975 14.1225 20.3464 15.5809 19.6652C17.0392 18.9841 18.273 17.9011 19.1375 16.5434C20.002 15.1857 20.4613 13.6095 20.4615 12Z" fill="black"/>
</svg>
